src/assets/icons/chains/kaia.svg

<svg width="32" height="32" viewBox="0 0 32 32" fill="none" xmlns="http://www.w3.org/2000/svg">
<circle cx="16" cy="16" r="16" fill="#BFF009"/>
<path d="M16.156 11.4684C16.156 10.7511 16.7235 10.1668 17.42 10.1668H19.6818V7H18.5509H17.42C15.0238 7 13.0807 9.00088 13.0807 11.4684C13.0807 12.1123 13.2139 12.7243 13.4519 13.2768C11.5908 14.0868 10.3551 15.808 10.0673 17.9861C9.73115 20.3775 10.6617 22.9572 12.6881 24.2034C14.4967 25.3763 17.3245 25.2987 18.8521 23.6717V24.7518H22V12.77H17.4214C16.7248 12.77 16.156 12.1857 16.156 11.4684ZM18.922 15.9382V18.9457C18.922 20.6074 17.6137 21.9533 16.0014 21.9533C14.3891 21.9533 13.0807 20.606 13.0807 18.9457C13.0807 17.2855 14.3891 15.9382 16.0014 15.9382H18.922Z" fill="#040404"/>
</svg>

<svg xmlns="http://www.w3.org/2000/svg" width="32" height="32" fill="none" viewBox="0 0 32 32">
  <path fill="#BFF009" d="M0 0h32v32H0z"/>
  <path fill="#040404" d="M16.156 11.468c0-.717.568-1.301 1.264-1.301h2.262V7H17.42c-2.396 0-4.34 2-4.34 4.468 0 .644.134 1.256.372 1.809-1.861.81-3.097 2.531-3.385 4.71-.336 2.39.595 4.97 2.621 6.216 1.809 1.173 4.636 1.096 6.164-.531v1.08H22V12.77h-4.579c-.696 0-1.265-.584-1.265-1.302Zm2.766 4.47v3.008c0 1.661-1.308 3.007-2.92 3.007-1.613 0-2.921-1.347-2.921-3.007 0-1.66 1.308-3.008 2.92-3.008h2.921Z"/>
</svg>
